public/images/mobile.svg

<svg xmlns="http://www.w3.org/2000/svg" width="1000" height="1000" fill="none">
  <circle cx="500" cy="500" r="450" fill="#fff"/>
  <path fill="#009EF8" d="M999.5 500c0 275.866-223.634 499.5-499.5 499.5S.5 775.866.5 500 224.134.49988 500 .49988 999.5 224.134 999.5 500ZM323.939 342.675c0-21.141-17.139-38.28-38.282-38.28-21.141 0-38.28 17.139-38.28 38.28v314.648c0 21.143 17.139 38.282 38.28 38.282 21.143 0 38.282-17.139 38.282-38.282V342.675Zm428.688.003c0-21.144-17.139-38.283-38.28-38.283-21.143 0-38.282 17.139-38.282 38.283v314.647c0 21.141 17.139 38.28 38.282 38.28 21.141 0 38.28-17.139 38.28-38.28V342.678Zm-107.175 122.1c0-21.141-17.139-38.28-38.28-38.28-21.143 0-38.282 17.139-38.282 38.28v192.547c0 21.141 17.139 38.28 38.282 38.28 21.141 0 38.28-17.139 38.28-38.28V464.778Zm-214.34 0c0-21.141-17.141-38.28-38.283-38.28-21.143 0-38.282 17.139-38.282 38.28v192.547c0 21.141 17.139 38.28 38.282 38.28 21.142 0 38.283-17.139 38.283-38.28V464.778Zm107.165 112.71c0-21.144-17.139-38.283-38.282-38.283-21.142 0-38.28 17.139-38.28 38.283v79.835c0 21.143 17.138 38.282 38.28 38.282 21.143 0 38.282-17.139 38.282-38.282v-79.835Z"/>
</svg>

<svg width="1000" height="1000" viewBox="0 0 1000 1000" fill="none" xmlns="http://www.w3.org/2000/svg">
<g clip-path="url(#clip0_612_1735)">
<circle cx="500" cy="500" r="500" fill="white"/>
<path d="M999.5 500C999.5 775.866 775.866 999.5 500 999.5C224.134 999.5 0.5 775.866 0.5 500C0.5 224.134 224.134 0.499878 500 0.499878C775.866 0.499878 999.5 224.134 999.5 500ZM323.939 342.675C323.939 321.534 306.8 304.395 285.657 304.395C264.516 304.395 247.377 321.534 247.377 342.675V657.323C247.377 678.466 264.516 695.605 285.657 695.605C306.8 695.605 323.939 678.466 323.939 657.323V342.675ZM752.627 342.678C752.627 321.534 735.488 304.395 714.347 304.395C693.204 304.395 676.065 321.534 676.065 342.678V657.325C676.065 678.466 693.204 695.605 714.347 695.605C735.488 695.605 752.627 678.466 752.627 657.325V342.678ZM645.452 464.778C645.452 443.637 628.313 426.498 607.172 426.498C586.029 426.498 568.89 443.637 568.89 464.778V657.325C568.89 678.466 586.029 695.605 607.172 695.605C628.313 695.605 645.452 678.466 645.452 657.325V464.778ZM431.112 464.778C431.112 443.637 413.971 426.498 392.829 426.498C371.686 426.498 354.547 443.637 354.547 464.778V657.325C354.547 678.466 371.686 695.605 392.829 695.605C413.971 695.605 431.112 678.466 431.112 657.325V464.778ZM538.277 577.488C538.277 556.344 521.138 539.205 499.995 539.205C478.853 539.205 461.715 556.344 461.715 577.488V657.323C461.715 678.466 478.853 695.605 499.995 695.605C521.138 695.605 538.277 678.466 538.277 657.323V577.488Z" fill="#009EF8" stroke="#009EF8"/>
</g>
<defs>
<clipPath id="clip0_612_1735">
<rect width="1000" height="1000" fill="white"/>
</clipPath>
</defs>
</svg>
